X:14
T:Snowy Path (Slip Jig)
I:titlefont Times-Roman 24
I:partsfont Times-Roman 20
M:9/8
L:1/8
R:slip jig
O:Mark Kelly (13.11.2013/NS)
K:Dmaj
"D"F2A B2F A3|"G"G2B d2e dBG|"D"F2A B2F A3|"A"E2D E2F GFE|
"D"F2A B2F A3|"G"G2B d2e dBG|"Hm"F2A B2F A3|"A"E2D E2F GAB||
%%vskip%%
"D/F#"c3 c2e d2c|"G"B2G B2c d2e|"Hm"f3 f2e d2B|"A"A2G F2G A2B|
"D/F#"c3 c2e d2c|"G"B2G B2c d2e|"D"d2A B2F A2F|"A"E2D E2F GFE||
%%vskip
K:Dmix
P:Hardiman The Fiddler
|:"D"A2G FDE F2G|A2A AGA cAG|A2G FDE F2G|Add ded cAG:|
Add d2e f3|Add ded cAG|Add d2e f2g|agf ged cAG|
Add d2e f3|Add ded cAG|dcA B/^c/de f2g|agf ged cAG||
%%vskip
%%vskip
W:Snowy Path
%%vskip
W:F2A B2F A3 | G2B d2e dBG | F2A B2F A3 | E2D E2F GFE |
W:F2A B2F A3 | G2B d2e dBG | F2A B2F A3 | E2D E2F GAB ||
W:c3 c2e d2c | B2G B2c d2e | f3 f2e d2B | A2G F2G A2B |
W:c3 c2e d2c | B2G B2c d2e | d2A B2F A2F | E2D E2F GFE ||
%%vskip
%%vskip
W:Hardiman the Fiddler
%%vskip
W:||: A2G FDE F2G | A2A AGA cAG | A2G FDE F2G | Add ded cAG :|
W:Add d2e f3 | Add ded cAG | Add d2e f2g | agf ged cAG |
W:Add d2e f3 | Add ded cAG | dcA B/^c/de f2g | agf ged cAG |
%%vskip
%%vskip
%%vskip
%%vskip
%%vskip
%%vskip
W:Altan: Snowy Path (Harvest Storm 1992)

